X:126
T:Steeplechase Polka
C:W. Krug
M:2/4
L:1/16
Q:1/4=100
K:G
%%MIDI channel 1
%%MIDI program 72
%%MIDI transpose 8
%%MIDI grace 1/8
%%MIDI ratio 3 1
g2(3ggg gaba|g2(3ggg gaba|(Lgf)ed cBAG|F2 z2z2 d2|:!biga!BdGd BdGd|Bdgf edcB|
cAag fedc|Bde^c d2=c2|BdGd BdGd|Bdgf edcB|ABc^c d^def|[1 (3ggg dB G2z2:|[2 (3ggg (3fff g2z2||
||!bigb!(3BBB ^AB Td4|(3ddd ^cd g4|(3ggg fg bgdB|dcAF D4|(3ccc Bc e4|(3eee ^de a4|(3fff (3ccc (3fff (3ccc|
edBG D4|(3BBB ^AB Td4|(3ddd ^cd g4|(3ggg fg bgdB|A6 ef|gfed ^cgfe|d^ced =cBAG|
FGAB cdef|gfga b2 ef|gfed ^cgfe|d^ced =cBAG|FGAB cdefO|g2 z2z2 d2||!bigc!d4-dBGE|D4-DDGB|
D2 (3ggg (3fff (3eee|ez/(e/LF2) ez/(e/LF2)|c4-cBdB|c4-cAFE|(3DDD FD GDAD|B6 d2|d4-dBGE|D4-DDGB|
D2 (3ggg (3ddd (3^ddd|e6 ef|(3ggg (3^ccc (3fff (3eee|(ed)BG DGFE|(3DDD FA Le2d2|(3GGG Bd g2d2||
|:!bigd!LBc^cd Ledcd|Lgd^cd Ledcd|Lad^cd Ledcd|Lbd^cd Ledcd|Bc^cd edcd|gd^cd edcd|
=cBAB cdef|[1 (3ggg dB G2 z2:|[2 (3ggg !D.C.!dB G2 z2!alcoda!||\
%%staffbreak 1cm
[|Og2(3ddd f2(3ddd|e2(3ddd ^c2d2|g2(3ddd f2(3ddd|
e2(3ddd ^c2d2|gd^cd edfd|gd^cd edfd|g2(3ggg (3ddd (3BBB|G2(3eee (3ccc (3AAA|
F2(3ddd (3BBB (3GGG|E2(3ccc (3AAA (3FFF|G2(3ddd A2(3ddd|B2(3ddd A2(3ddd|G2(3ddd A2(3ddd|
B2(3ddd A2(3ddd|GDEF GABc|dGAB cdef|(gf)(gf) (gf)(gf)|g2 z b b2 z B|G8!fine!||
